material/.icons/material/beaker-outline.svg

<svg xmlns="http://www.w3.org/2000/svg" viewBox="0 0 24 24"><path d="M3 3h18v2a2 2 0 00-2 2v12a2 2 0 01-2 2H7a2 2 0 01-2-2V7a2 2 0 00-2-2V3m4 2v2h5v1H7v1h3v1H7v1h3v1H7v1h5v1H7v1h3v1H7v3h10V5H7z"/></svg>

<?xml version="1.0" encoding="UTF-8"?><!DOCTYPE svg PUBLIC "-//W3C//DTD SVG 1.1//EN" "http://www.w3.org/Graphics/SVG/1.1/DTD/svg11.dtd"><svg xmlns="http://www.w3.org/2000/svg" xmlns:xlink="http://www.w3.org/1999/xlink" version="1.1" id="mdi-beaker-outline" width="24" height="24" viewBox="0 0 24 24"><path d="M3,3H21V5A2,2 0 0,0 19,7V19A2,2 0 0,1 17,21H7A2,2 0 0,1 5,19V7A2,2 0 0,0 3,5V3M7,5V7H12V8H7V9H10V10H7V11H10V12H7V13H12V14H7V15H10V16H7V19H17V5H7Z" /></svg>
